svg/icon/arn.svg

<svg height="32" viewBox="0 0 32 32" width="32" xmlns="http://www.w3.org/2000/svg" xmlns:xlink="http://www.w3.org/1999/xlink"><defs><linearGradient id="a" x1="50%" x2="50%" y1="0%" y2="100%"><stop offset="0" stop-color="#fff" stop-opacity=".5"/><stop offset="1" stop-opacity=".5"/></linearGradient><circle id="b" cx="16" cy="15" r="15"/><filter id="c" height="111.7%" width="111.7%" x="-5.8%" y="-4.2%"><feOffset dy=".5" in="SourceAlpha" result="shadowOffsetOuter1"/><feGaussianBlur in="shadowOffsetOuter1" result="shadowBlurOuter1" stdDeviation=".5"/><feComposite in="shadowBlurOuter1" in2="SourceAlpha" operator="out" result="shadowBlurOuter1"/><feColorMatrix in="shadowBlurOuter1" values="0 0 0 0 0   0 0 0 0 0   0 0 0 0 0  0 0 0 0.199473505 0"/></filter><path id="d" d="m11.7594513 13.1022526 4.2827273-7.53824726c.0081161-.01427845.0235039-.02310241.0800092.00055876l4.0740077 7.4008676c-.2199793.1803909-.3599944.452115-.3599944.7560408 0 .3153256.1507156.5959886.385082.7759508l-3.7631085 6.7872241c-.1316071-.0628865-.2793491-.098155-.4354566-.098155-.1516683 0-.2954402.0332912-.4241904.0928574l-3.8734096-6.8991644c.1598253-.1743512.2571342-.4053422.2571342-.6587129 0-.2346812-.0834827-.4501626-.2228009-.6192199zm-.4090272 1.5341578 3.8878175 6.9248271c-.0830809.1036823-.1454164.2242311-.1808401.3555746-3.1382065-.7513619-5.08843319-1.2164553-5.85162265-1.3955027-.32301039-.4544159-.60547754-.9357527-.84410603-1.4384533l2.49195428-4.3862161c.0425258.0054399.0858914.0082458.1299225.0082458.1295306 0 .2533015-.024282.3668745-.0684754zm-.5390714-1.8837877-3.08735302-5.49907149c2.10382236-1.11898088 4.71533462-1.70349795 7.83453662-1.75355121l-4.1620307 7.3258029c-.1258577-.0563546-.2656842-.0877436-.412956-.0877436-.0587204 0-.1162572.0049902-.1721969.0145634zm-.419453.1765017c-.2468757.1790421-.40705261.4672758-.40705261.7923481 0 .3392022.17440421.6382937.43973071.8150704l-2.28953573 4.0299288c-.37640566-.931789-.60651086-1.9270016-.67096644-2.9530092l-.46238428-7.38251876c-.01797621-.29044709.10830975-.56798814.33256011-.74798166zm6.5988975 8.9981651c-.0337075-.1308112-.0940405-.2511656-.1749856-.3551419l3.8184874-6.8871068c.064806.0130125.131895.019845.2006047.019845.1026328 0 .2016498-.0152445.2948429-.0435594l2.4739031 4.4941076c-.2095426.4320077-.4516107.8479086-.724087 1.2441321zm-.7412583 1.2005561c.3710654-.0848541.6628005-.3733685.7471429-.7394413l5.4563088-1.415531c-.6498232.8086442-1.4355367 1.5180363-2.3360562 2.0926218l-3.6229816 2.3134376c-.0768031.0490247-.1592328.085524-.2444139.1094977zm-.4536417 0v2.3721544c-.1013247-.0229954-.1995423-.0633512-.2899616-.1210673l-3.6228737-2.3137569c-.8592116-.5482287-1.6139082-1.21918-2.24577595-1.9819715.98944535.2344132 2.79240815.6648581 5.40835405 1.2912088.0800559.3726994.3744771.6675003.7502572.7534325zm5.3701587-10.334435c-.1036299-.0358526-.2150786-.0553513-.3311522-.0553513-.0801864 0-.1581656.0093055-.2328846.0268797l-3.9974691-7.26182703c3.0326782.06719967 5.5799372.64541794 7.6417771 1.7346548zm.3834059.2410227 3.0894718-5.57223835c.2409637.1789808.3780735.46690107.3593714.76874879l-.4623843 7.38283816c-.0661207 1.0525139-.3065606 2.0726211-.7004317 3.0250984l-2.3138609-4.2033739c.1921343-.1792319.3119781-.4328516.3119781-.7140339 0-.2673454-.1083391-.5097742-.2841444-.6870392zm-5.5494097-2.7996174c-.2886124 0-.5411752.2487808-.5411752.5330104v1.9545844l-2.88634 1.7768078.3094435.6672477 2.5768965-.8449179v1.954478l-.721639.5331168v.5330104l1.2628142-.3553402 1.2628143.3553402v-.5330104l-.721639-.5331168v-1.954478l2.5326441.8899475.3535879-.7118515-2.886232-1.7772336v-1.9545844c0-.2842296-.2525629-.5330104-.5411753-.5330104z"/><filter id="e" height="117.5%" width="119.4%" x="-9.7%" y="-6.2%"><feOffset dy=".5" in="SourceAlpha" result="shadowOffsetOuter1"/><feGaussianBlur in="shadowOffsetOuter1" result="shadowBlurOuter1" stdDeviation=".5"/><feColorMatrix in="shadowBlurOuter1" values="0 0 0 0 0   0 0 0 0 0   0 0 0 0 0  0 0 0 0.204257246 0"/></filter></defs><g fill="none" fill-rule="nonzero"><g><use fill="#000" filter="url(#c)" xlink:href="#b"/><use fill="#0092b5" fill-rule="evenodd" xlink:href="#b"/><use fill="url(#a)" fill-rule="evenodd" xlink:href="#b"/><circle cx="16" cy="15" r="14.5" stroke="#000" stroke-opacity=".097"/></g><g><use fill="#000" filter="url(#e)" xlink:href="#d"/><use fill="#fff" fill-rule="evenodd" xlink:href="#d"/></g></g></svg>

<svg xmlns="http://www.w3.org/2000/svg" xmlns:xlink="http://www.w3.org/1999/xlink" width="32" height="32" viewBox="0 0 32 32">
  <defs>
    <linearGradient id="arn-c" x1="50%" x2="50%" y1="0%" y2="100%">
      <stop offset="0%" stop-color="#FFF" stop-opacity=".5"/>
      <stop offset="100%" stop-opacity=".5"/>
    </linearGradient>
    <circle id="arn-b" cx="16" cy="15" r="15"/>
    <filter id="arn-a" width="111.7%" height="111.7%" x="-5.8%" y="-4.2%" filterUnits="objectBoundingBox">
      <feOffset dy=".5" in="SourceAlpha" result="shadowOffsetOuter1"/>
      <feGaussianBlur in="shadowOffsetOuter1" result="shadowBlurOuter1" stdDeviation=".5"/>
      <feComposite in="shadowBlurOuter1" in2="SourceAlpha" operator="out" result="shadowBlurOuter1"/>
      <feColorMatrix in="shadowBlurOuter1" values="0 0 0 0 0   0 0 0 0 0   0 0 0 0 0  0 0 0 0.199473505 0"/>
    </filter>
    <path id="arn-e" d="M11.7594513,13.1022526 L16.0421786,5.56400534 C16.0502947,5.54972689 16.0656825,5.54090293 16.1221878,5.5645641 L20.1961955,12.9654317 C19.9762162,13.1458226 19.8362011,13.4175467 19.8362011,13.7214725 C19.8362011,14.0367981 19.9869167,14.3174611 20.2212831,14.4974233 L16.4581746,21.2846474 C16.3265675,21.2217609 16.1788255,21.1864924 16.022718,21.1864924 C15.8710497,21.1864924 15.7272778,21.2197836 15.5985276,21.2793498 L11.725118,14.3801854 C11.8849433,14.2058342 11.9822522,13.9748432 11.9822522,13.7214725 C11.9822522,13.4867913 11.8987695,13.2713099 11.7594513,13.1022526 Z M11.3504241,14.6364104 L15.2382416,21.5612375 C15.1551607,21.6649198 15.0928252,21.7854686 15.0574015,21.9168121 C11.919195,21.1654502 9.96896831,20.7003568 9.20577885,20.5213094 C8.88276846,20.0668935 8.60030131,19.5855567 8.36167282,19.0828561 L10.8536271,14.69664 C10.8961529,14.7020799 10.9395185,14.7048858 10.9835496,14.7048858 C11.1130802,14.7048858 11.2368511,14.6806038 11.3504241,14.6364104 Z M10.8113527,12.7526227 L7.72399968,7.25355121 C9.82782204,6.13457033 12.4393343,5.55005326 15.5585363,5.5 L11.3965056,12.8258029 C11.2706479,12.7694483 11.1308214,12.7380593 10.9835496,12.7380593 C10.9248292,12.7380593 10.8672924,12.7430495 10.8113527,12.7526227 Z M10.3918997,12.9291244 C10.145024,13.1081665 9.98484709,13.3964002 9.98484709,13.7214725 C9.98484709,14.0606747 10.1592513,14.3597662 10.4245778,14.5365429 L8.13504207,18.5664717 C7.75863641,17.6346827 7.52853121,16.6394701 7.46407563,15.6134625 L7.00169135,8.23094374 C6.98371514,7.94049665 7.1100011,7.6629556 7.33425146,7.48296208 L10.3918997,12.9291244 Z M16.9907972,21.9272895 C16.9570897,21.7964783 16.8967567,21.6761239 16.8158116,21.5721476 L20.634299,14.6850408 C20.699105,14.6980533 20.766194,14.7048858 20.8349037,14.7048858 C20.9375365,14.7048858 21.0365535,14.6896413 21.1297466,14.6613264 L23.6036497,19.155434 C23.3941071,19.5874417 23.152039,20.0033426 22.8795627,20.3995661 L16.9907972,21.9272895 Z M16.2495389,23.1278456 C16.6206043,23.0429915 16.9123394,22.7544771 16.9966818,22.3884043 L22.4529906,20.9728733 C21.8031674,21.7815175 21.0174539,22.4909096 20.1169344,23.0654951 L16.4939528,25.3789327 C16.4171497,25.4279574 16.33472,25.4644567 16.2495389,25.4884304 L16.2495389,23.1278456 Z M15.7958972,23.1278456 L15.7958972,25.5 C15.6945725,25.4770046 15.5963549,25.4366488 15.5059356,25.3789327 L11.8830619,23.0651758 C11.0238503,22.5169471 10.2691537,21.8459958 9.63728595,21.0832043 C10.6267313,21.3176175 12.4296941,21.7480624 15.04564,22.3744131 C15.1256959,22.7471125 15.4201171,23.0419134 15.7958972,23.1278456 Z M21.1660559,12.7934106 C21.062426,12.757558 20.9509773,12.7380593 20.8349037,12.7380593 C20.7547173,12.7380593 20.6767381,12.7473648 20.6020191,12.764939 L16.60455,5.50311197 C19.6372282,5.57031164 22.1844872,6.14852991 24.2463271,7.23776677 L21.1660559,12.7934106 Z M21.5494618,13.0344333 L24.6389336,7.46219495 C24.8798973,7.64117575 25.0170071,7.92909602 24.998305,8.23094374 L24.5359207,15.6137819 C24.4698,16.6662958 24.2293601,17.686403 23.835489,18.6388803 L21.5216281,14.4355064 C21.7137624,14.2562745 21.8336062,14.0026548 21.8336062,13.7214725 C21.8336062,13.4541271 21.7252671,13.2116983 21.5494618,13.0344333 Z M16.0000521,10.2348159 C15.7114397,10.2348159 15.4588769,10.4835967 15.4588769,10.7678263 L15.4588769,12.7224107 L12.5725369,14.4992185 L12.8819804,15.1664662 L15.4588769,14.3215483 L15.4588769,16.2760263 L14.7372379,16.8091431 L14.7372379,17.3421535 L16.0000521,16.9868133 L17.2628664,17.3421535 L17.2628664,16.8091431 L16.5412274,16.2760263 L16.5412274,14.3215483 L19.0738715,15.2114958 L19.4274594,14.4996443 L16.5412274,12.7224107 L16.5412274,10.7678263 C16.5412274,10.4835967 16.2886645,10.2348159 16.0000521,10.2348159 Z"/>
    <filter id="arn-d" width="119.4%" height="117.5%" x="-9.7%" y="-6.2%" filterUnits="objectBoundingBox">
      <feOffset dy=".5" in="SourceAlpha" result="shadowOffsetOuter1"/>
      <feGaussianBlur in="shadowOffsetOuter1" result="shadowBlurOuter1" stdDeviation=".5"/>
      <feColorMatrix in="shadowBlurOuter1" values="0 0 0 0 0   0 0 0 0 0   0 0 0 0 0  0 0 0 0.204257246 0"/>
    </filter>
  </defs>
  <g fill="none" fill-rule="evenodd">
    <g fill-rule="nonzero">
      <use fill="#000" filter="url(#arn-a)" xlink:href="#arn-b"/>
      <use fill="#0092B5" fill-rule="evenodd" xlink:href="#arn-b"/>
      <use fill="url(#arn-c)" fill-rule="evenodd" style="mix-blend-mode:soft-light" xlink:href="#arn-b"/>
      <circle cx="16" cy="15" r="14.5" stroke="#000" stroke-opacity=".097"/>
    </g>
    <g fill-rule="nonzero">
      <use fill="#000" filter="url(#arn-d)" xlink:href="#arn-e"/>
      <use fill="#FFF" fill-rule="evenodd" xlink:href="#arn-e"/>
    </g>
  </g>
</svg>
